.github/logo.svg

<svg width="78" height="75" viewBox="0 0 78 75" fill="none" xmlns="http://www.w3.org/2000/svg">
<path d="M21.2 75C16.8 75 13 74.1667 9.8 72.5C6.66667 70.8333 4.23333 68.4333 2.5 65.3C0.833333 62.1 0 58.3333 0 54V21C0 16.6 0.833333 12.8333 2.5 9.7C4.23333 6.56666 6.66667 4.16666 9.8 2.5C13 0.833333 16.8 0 21.2 0C25.6 0 29.3667 0.833333 32.5 2.5C35.7 4.16666 38.1333 6.56666 39.8 9.7C41.5333 12.8333 42.4 16.5667 42.4 20.9V54C42.4 58.3333 41.5333 62.1 39.8 65.3C38.1333 68.4333 35.7 70.8333 32.5 72.5C29.3667 74.1667 25.6 75 21.2 75ZM21.2 66.9C25.1333 66.9 28.1333 65.8 30.2 63.6C32.3333 61.3333 33.4 58.1333 33.4 54V21C33.4 16.8667 32.3333 13.7 30.2 11.5C28.1333 9.23333 25.1333 8.1 21.2 8.1C17.3333 8.1 14.3333 9.23333 12.2 11.5C10.0667 13.7 9 16.8667 9 21V54C9 58.1333 10.0667 61.3333 12.2 63.6C14.3333 65.8 17.3333 66.9 21.2 66.9Z" fill="black"/>
<path d="M56.4831 75C52.0831 75 48.2498 74.1667 44.9831 72.5C41.7831 70.8333 39.2831 68.4333 37.4831 65.3C35.7498 62.1 34.8831 58.3333 34.8831 54V21C34.8831 16.6 35.7498 12.8333 37.4831 9.7C39.2831 6.56666 41.7831 4.16666 44.9831 2.5C48.2498 0.833333 52.0831 0 56.4831 0C60.8831 0 64.6831 0.866665 67.8831 2.6C71.0831 4.26667 73.5498 6.66667 75.2831 9.8C77.0165 12.9333 77.8831 16.6667 77.8831 21H68.8831C68.8831 16.8667 67.7831 13.7 65.5831 11.5C63.4498 9.23333 60.4165 8.1 56.4831 8.1C52.5498 8.1 49.4498 9.2 47.1831 11.4C44.9831 13.6 43.8831 16.7667 43.8831 20.9V54C43.8831 58.1333 44.9831 61.3333 47.1831 63.6C49.4498 65.8 52.5498 66.9 56.4831 66.9C60.4165 66.9 63.4498 65.8 65.5831 63.6C67.7831 61.3333 68.8831 58.1333 68.8831 54H77.8831C77.8831 58.2667 77.0165 62 75.2831 65.2C73.5498 68.3333 71.0831 70.7667 67.8831 72.5C64.6831 74.1667 60.8831 75 56.4831 75Z" fill="black"/>
</svg>

<svg xmlns="http://www.w3.org/2000/svg" width="78" height="75" fill="none">
  <path fill="#000"
    d="M21.2 75c-4.4 0-8.2-.833-11.4-2.5-3.133-1.667-5.567-4.067-7.3-7.2C.833 62.1 0 58.333 0 54V21c0-4.4.833-8.167 2.5-11.3 1.733-3.133 4.167-5.533 7.3-7.2C13 .833 16.8 0 21.2 0s8.167.833 11.3 2.5c3.2 1.667 5.633 4.067 7.3 7.2 1.733 3.133 2.6 6.867 2.6 11.2V54c0 4.333-.867 8.1-2.6 11.3-1.667 3.133-4.1 5.533-7.3 7.2-3.133 1.667-6.9 2.5-11.3 2.5Zm0-8.1c3.933 0 6.933-1.1 9-3.3 2.133-2.267 3.2-5.467 3.2-9.6V21c0-4.133-1.067-7.3-3.2-9.5-2.067-2.267-5.067-3.4-9-3.4-3.867 0-6.867 1.133-9 3.4C10.067 13.7 9 16.867 9 21v33c0 4.133 1.067 7.333 3.2 9.6 2.133 2.2 5.133 3.3 9 3.3Z" />
  <path fill="#000"
    d="M56.483 75c-4.4 0-8.233-.833-11.5-2.5-3.2-1.667-5.7-4.067-7.5-7.2-1.733-3.2-2.6-6.967-2.6-11.3V21c0-4.4.867-8.167 2.6-11.3 1.8-3.133 4.3-5.533 7.5-7.2C48.25.833 52.083 0 56.483 0s8.2.867 11.4 2.6c3.2 1.667 5.667 4.067 7.4 7.2 1.733 3.133 2.6 6.867 2.6 11.2h-9c0-4.133-1.1-7.3-3.3-9.5-2.133-2.267-5.166-3.4-9.1-3.4-3.933 0-7.033 1.1-9.3 3.3-2.2 2.2-3.3 5.367-3.3 9.5V54c0 4.133 1.1 7.333 3.3 9.6 2.267 2.2 5.367 3.3 9.3 3.3 3.934 0 6.967-1.1 9.1-3.3 2.2-2.267 3.3-5.467 3.3-9.6h9c0 4.267-.867 8-2.6 11.2-1.733 3.133-4.2 5.567-7.4 7.3-3.2 1.667-7 2.5-11.4 2.5Z" />
</svg>
